X: 144
T: Ang naga erna Nang rag ar-na                            (Name)
%%abc-version 2.0
%%abcx-abcm2ps-target-version 5.9.1 (29 Sep 2008)
%%abc-creator hum2abc beta
%%abcx-conversion-date 2013/10/02 07:44:27
%%abc-edited-by Helmut Schaffrath
%%humdrum-veritas 2092268979
%%humdrum-veritas-data 155003639
%%continueall 1
%%barnumbers 0
L: 1/8
M: 2/4
K: C
A2G2 [I:setbarnb 1]| 
d2c A | 
A GE2 | 
A2d2 | 
EA2E | 
C4 | 
e2c2 | 
A> c A G | 
ED2E | 
AG2E | 
DE2C | 
A,4 |]  



